profiles/pawn_profile.svg

<?xml version="1.0" encoding="UTF-8" standalone="no"?>
<svg
   xmlns:dc="http://purl.org/dc/elements/1.1/"
   xmlns:cc="http://creativecommons.org/ns#"
   xmlns:rdf="http://www.w3.org/1999/02/22-rdf-syntax-ns#"
   xmlns:svg="http://www.w3.org/2000/svg"
   xmlns="http://www.w3.org/2000/svg"
   xmlns:sodipodi="http://sodipodi.sourceforge.net/DTD/sodipodi-0.dtd"
   xmlns:inkscape="http://www.inkscape.org/namespaces/inkscape"
   version="1.1"
   id="pawn_profile"
   width="100%"
   height="100%"
   viewBox="-6 -6 198 606"
   sodipodi:docname="pawn_profile.svg"
   inkscape:version="1.0.2 (1.0.2+r75+1)">
  <metadata
     id="metadata908">
    <rdf:RDF>
      <cc:Work
         rdf:about="">
        <dc:format>image/svg+xml</dc:format>
        <dc:type
           rdf:resource="http://purl.org/dc/dcmitype/StillImage" />
      </cc:Work>
    </rdf:RDF>
  </metadata>
  <defs
     id="defs906" />
  <sodipodi:namedview
     pagecolor="#ffffff"
     bordercolor="#666666"
     borderopacity="1"
     objecttolerance="10"
     gridtolerance="10"
     guidetolerance="10"
     inkscape:pageopacity="0"
     inkscape:pageshadow="2"
     inkscape:window-width="1920"
     inkscape:window-height="1015"
     id="namedview904"
     showgrid="false"
     showguides="true"
     inkscape:guide-bbox="true"
     inkscape:zoom="11.141914"
     inkscape:cx="18.115527"
     inkscape:cy="586.24478"
     inkscape:window-x="0"
     inkscape:window-y="0"
     inkscape:window-maximized="1"
     inkscape:current-layer="pawn_profile">
    <sodipodi:guide
       position="6,0"
       orientation="0,-1"
       id="guide1471" />
  </sodipodi:namedview>
  <desc
     id="desc897">
XCircuit Version 3.9
File &quot;profiles.ps&quot; Page 2
</desc>
  <g
     stroke="black"
     id="g901">
    <path
       d="M -5.3996918,0 V 600 H 192 v -16 h -8 c -8,0 0,-8 0,-8 8,-8 8,-24 -8,-32 -64,-24 -72,-64 -72,-112 -18,-8 -50,-56 -52,-154 8,-2 72,-10 72,-30 0,-16 -54,-28 -66,-30 -6,-1 -5,-6 0,-8 26,-12 52,-54 52,-92 C 110,54 58.600308,2 -5.3996918,0"
       fill="none"
       stroke-width="2"
       stroke-linejoin="bevel"
       stroke-linecap="round"
       id="path899"
       sodipodi:nodetypes="ccccsccccsscsc" />
  </g>
</svg>

<svg xmlns="http://www.w3.org/2000/svg"
   xmlns:xlink="http://www.w3.org/1999/xlink"
   version="1.1"
   id="pawn_profile" width="100%" height="100%"  viewBox="-6 -6 198 606">
<desc>
XCircuit Version 3.9
File "profiles.ps" Page 2
</desc>
<g stroke="black">
<path d="M0,0 L0,600 L192,600 L192,584 184,584 C176,584 184,576 184,576 C192,568 192,552 176,544 C112,520 104,480 104,432 C86,424 54,376 52,278 C60,276 124,268 124,248 C124,232 70,220 58,218 C52,217 53,212 58,210 C84,198 110,156 110,118 C110,54 64,2 0,0 " fill="none" stroke-width="2" stroke-linejoin="bevel" stroke-linecap="round" />
</g>
</svg>
